icons-rebrand/svg/back-to-full-screen-regular.svg

<svg width="32" height="32" viewBox="0 0 32 32" fill="none" xmlns="http://www.w3.org/2000/svg">
<path d="M24.9998 9.25H20.9998C20.8009 9.25 20.6102 9.32902 20.4695 9.46967C20.3289 9.61032 20.2498 9.80109 20.2498 10C20.2498 10.1989 20.3289 10.3897 20.4695 10.5303C20.6102 10.671 20.8009 10.75 20.9998 10.75H23.1898L19.4698 14.47C19.3374 14.6122 19.2652 14.8002 19.2687 14.9945C19.2721 15.1888 19.3508 15.3742 19.4882 15.5116C19.6256 15.649 19.811 15.7277 20.0053 15.7312C20.1996 15.7346 20.3877 15.6625 20.5298 15.53L24.2498 11.811V14C24.2498 14.1989 24.3289 14.3897 24.4695 14.5303C24.6102 14.671 24.8009 14.75 24.9998 14.75C25.1988 14.75 25.3895 14.671 25.5302 14.5303C25.6708 14.3897 25.7498 14.1989 25.7498 14V10C25.7498 9.80109 25.6708 9.61032 25.5302 9.46967C25.3895 9.32902 25.1988 9.25 24.9998 9.25Z" fill="#0F0F0F"/>
<path d="M25 5.25H7C5.74063 5.25132 4.53322 5.75219 3.6427 6.6427C2.75219 7.53322 2.25132 8.74063 2.25 10V22C2.25132 23.2594 2.75219 24.4668 3.6427 25.3573C4.53322 26.2478 5.74063 26.7487 7 26.75H25C26.2594 26.7487 27.4668 26.2478 28.3573 25.3573C29.2478 24.4668 29.7487 23.2594 29.75 22V10C29.7487 8.74063 29.2478 7.53322 28.3573 6.6427C27.4668 5.75219 26.2594 5.25132 25 5.25ZM16.302 25.25H7C6.13837 25.2489 5.31234 24.9062 4.70307 24.2969C4.09381 23.6877 3.75106 22.8616 3.75 22V16.75H13.052C13.9136 16.7511 14.7397 17.0938 15.3489 17.7031C15.9582 18.3123 16.3009 19.1384 16.302 20V25.25ZM28.25 22C28.2492 22.8617 27.9065 23.6879 27.2972 24.2972C26.6879 24.9065 25.8617 25.2492 25 25.25H17.802V20C17.8007 18.7406 17.2998 17.5332 16.4093 16.6427C15.5188 15.7522 14.3114 15.2513 13.052 15.25H3.75V10C3.75106 9.13837 4.09381 8.31234 4.70307 7.70307C5.31234 7.09381 6.13837 6.75106 7 6.75H25C25.8616 6.75106 26.6877 7.09381 27.2969 7.70307C27.9062 8.31234 28.2489 9.13837 28.25 10V22Z" fill="#0F0F0F"/>
</svg>

<svg width="32" height="32" viewBox="0 0 32 32" fill="none" xmlns="http://www.w3.org/2000/svg"><path d="M25 9.25h-4a.75.75 0 1 0 0 1.5h2.19l-3.72 3.72a.75.75 0 0 0 1.06 1.06l3.72-3.719V14a.75.75 0 1 0 1.5 0v-4a.75.75 0 0 0-.75-.75z" fill="#0F0F0F"/><path d="M25 5.25H7A4.755 4.755 0 0 0 2.25 10v12A4.755 4.755 0 0 0 7 26.75h18A4.755 4.755 0 0 0 29.75 22V10A4.755 4.755 0 0 0 25 5.25zm-8.698 20H7A3.254 3.254 0 0 1 3.75 22v-5.25h9.302a3.254 3.254 0 0 1 3.25 3.25v5.25zM28.25 22A3.253 3.253 0 0 1 25 25.25h-7.198V20a4.755 4.755 0 0 0-4.75-4.75H3.75V10A3.254 3.254 0 0 1 7 6.75h18A3.254 3.254 0 0 1 28.25 10v12z" fill="#0F0F0F"/></svg>
